images/gen-slider/3.svg

<svg width="258" height="112" viewBox="0 0 258 112" fill="none" xmlns="http://www.w3.org/2000/svg">
<path d="M24.638 41V37.48L28.103 37.095C28.5064 37.0217 28.7447 36.93 28.818 36.82C28.928 36.6733 28.983 36.3983 28.983 35.995L28.983 9.705H28.763L11.163 41H0.108047V37.48L3.57305 37.095C3.97638 37.0217 4.21471 36.93 4.28805 36.82C4.39805 36.6733 4.45305 36.3983 4.45305 35.995L4.45305 6.185C4.45305 5.78166 4.39805 5.50666 4.28805 5.36C4.21471 5.21333 3.97638 5.12167 3.57305 5.085L0.108047 4.7L0.108047 1.18L15.343 1.18V4.7L11.658 5.14C11.2547 5.21333 10.998 5.305 10.888 5.415C10.8147 5.525 10.778 5.78166 10.778 6.185L10.778 31.925H10.998L28.323 1.18L39.873 1.18V4.7L36.188 5.14C35.7847 5.21333 35.528 5.305 35.418 5.415C35.3447 5.525 35.308 5.78166 35.308 6.185V35.94C35.308 36.38 35.3447 36.655 35.418 36.765C35.528 36.875 35.7847 36.9667 36.188 37.04L39.873 37.48V41L24.638 41ZM71.9514 41V37.48L75.4164 37.095C75.8197 37.0217 76.058 36.93 76.1314 36.82C76.2414 36.6733 76.2964 36.3983 76.2964 35.995V22.905L58.9164 22.905V35.94C58.9164 36.38 58.953 36.655 59.0264 36.765C59.1364 36.875 59.393 36.9667 59.7964 37.04L63.4814 37.48V41H48.1364V37.48L51.6014 37.095C52.0047 37.0217 52.243 36.93 52.3164 36.82C52.4264 36.6733 52.4814 36.3983 52.4814 35.995V6.185C52.4814 5.78166 52.4264 5.50666 52.3164 5.36C52.243 5.21333 52.0047 5.12167 51.6014 5.085L48.1364 4.7V1.18L63.4814 1.18V4.7L59.7964 5.14C59.393 5.21333 59.1364 5.305 59.0264 5.415C58.953 5.525 58.9164 5.78166 58.9164 6.185V18.065L76.2964 18.065V6.185C76.2964 5.78166 76.2414 5.50666 76.1314 5.36C76.058 5.21333 75.8197 5.12167 75.4164 5.085L71.9514 4.7V1.18L87.0764 1.18V4.7L83.6114 5.14C83.208 5.21333 82.9514 5.305 82.8414 5.415C82.768 5.525 82.7314 5.78166 82.7314 6.185V35.94C82.7314 36.38 82.768 36.655 82.8414 36.765C82.9514 36.875 83.208 36.9667 83.6114 37.04L87.0764 37.48V41L71.9514 41ZM127.526 38.69C125.986 39.68 123.988 40.4317 121.531 40.945C119.111 41.4217 116.636 41.66 114.106 41.66C110.733 41.66 107.836 41.165 105.416 40.175C103.033 39.185 101.071 37.7917 99.5313 35.995C97.9913 34.1617 96.8546 31.9617 96.1213 29.395C95.4246 26.8283 95.0763 23.9867 95.0763 20.87C95.0763 17.9367 95.4796 15.2233 96.2863 12.73C97.1296 10.2367 98.3946 8.09167 100.081 6.295C101.768 4.46166 103.858 3.03166 106.351 2.005C108.881 0.978331 111.815 0.464997 115.151 0.464997C117.535 0.464997 119.808 0.739997 121.971 1.29C124.171 1.80333 125.986 2.53667 127.416 3.49V13.115L122.741 12.785L121.806 7.45C121.77 6.97333 121.513 6.66167 121.036 6.515C120.193 6.22166 119.24 5.98333 118.176 5.8C117.15 5.61666 116.05 5.525 114.876 5.525C110.88 5.525 107.69 6.82667 105.306 9.43C102.96 12.0333 101.786 15.8467 101.786 20.87C101.786 26.15 102.905 30.11 105.141 32.75C107.415 35.3533 110.531 36.655 114.491 36.655C115.628 36.655 116.82 36.6 118.066 36.49C119.313 36.3433 120.395 36.0867 121.311 35.72C121.605 35.6467 121.806 35.555 121.916 35.445C122.026 35.2983 122.118 35.0417 122.191 34.675L123.071 29.615L127.526 29.615V38.69ZM146.702 18.34H150.552C151.835 18.34 152.862 18.1383 153.632 17.735C154.438 17.295 155.135 16.3417 155.722 14.875L159.242 6.075C159.975 4.205 160.892 2.81166 161.992 1.895C163.128 0.941664 164.778 0.464997 166.942 0.464997C167.382 0.501664 167.877 0.556664 168.427 0.629999C168.977 0.666665 169.472 0.721665 169.912 0.795L169.692 5.305C169.105 5.195 168.573 5.14 168.097 5.14C167.07 5.14 166.318 5.39667 165.842 5.91C165.365 6.38667 164.943 7.12 164.577 8.11L161.937 15.425C161.35 17.0383 160.58 18.1933 159.627 18.89C158.673 19.5867 157.793 20.0633 156.987 20.32V20.375C157.5 20.5217 157.958 20.7417 158.362 21.035C158.802 21.3283 159.223 21.7133 159.627 22.19C160.03 22.63 160.433 23.18 160.837 23.84C161.24 24.5 161.698 25.3067 162.212 26.26L167.162 35.5C167.418 35.94 167.638 36.27 167.822 36.49C168.042 36.6733 168.353 36.8017 168.757 36.875L172.332 37.48V41L162.267 41C161.79 39.7533 161.222 38.47 160.562 37.15C159.938 35.7933 159.297 34.4917 158.637 33.245C158.013 31.9617 157.39 30.77 156.767 29.67C156.18 28.5333 155.685 27.58 155.282 26.81C154.878 26.0767 154.493 25.4717 154.127 24.995C153.76 24.5183 153.375 24.1517 152.972 23.895C152.568 23.6017 152.092 23.4 151.542 23.29C151.028 23.18 150.405 23.125 149.672 23.125H146.702V35.94C146.702 36.38 146.738 36.655 146.812 36.765C146.922 36.875 147.178 36.9667 147.582 37.04L151.267 37.48V41H135.922V37.48L139.387 37.095C139.79 37.0217 140.028 36.9117 140.102 36.765C140.212 36.6183 140.267 36.3433 140.267 35.94V6.185C140.267 5.78166 140.212 5.50666 140.102 5.36C140.028 5.21333 139.79 5.12167 139.387 5.085L135.922 4.7V1.18L151.267 1.18V4.7L147.582 5.14C147.178 5.21333 146.922 5.305 146.812 5.415C146.738 5.525 146.702 5.78166 146.702 6.185V18.34ZM204.559 41V37.48L208.024 37.095C208.427 37.0217 208.666 36.93 208.739 36.82C208.849 36.6733 208.904 36.3983 208.904 35.995V9.705H208.684L191.084 41H180.029V37.48L183.494 37.095C183.897 37.0217 184.136 36.93 184.209 36.82C184.319 36.6733 184.374 36.3983 184.374 35.995V6.185C184.374 5.78166 184.319 5.50666 184.209 5.36C184.136 5.21333 183.897 5.12167 183.494 5.085L180.029 4.7V1.18L195.264 1.18V4.7L191.579 5.14C191.176 5.21333 190.919 5.305 190.809 5.415C190.736 5.525 190.699 5.78166 190.699 6.185V31.925H190.919L208.244 1.18L219.794 1.18V4.7L216.109 5.14C215.706 5.21333 215.449 5.305 215.339 5.415C215.266 5.525 215.229 5.78166 215.229 6.185V35.94C215.229 36.38 215.266 36.655 215.339 36.765C215.449 36.875 215.706 36.9667 216.109 37.04L219.794 37.48V41L204.559 41ZM228.057 41V37.48L231.522 37.095C231.926 37.0217 232.164 36.93 232.237 36.82C232.347 36.6733 232.402 36.3983 232.402 35.995V6.24C232.402 5.83667 232.347 5.56167 232.237 5.415C232.164 5.26833 231.926 5.17667 231.522 5.14L228.057 4.755V1.18L256.327 1.18V11.08L251.652 10.86L250.882 6.625C250.772 6.14833 250.461 5.91 249.947 5.91L238.837 5.91V18.56L252.807 18.56V23.345L238.837 23.345V36.325H251.157C251.451 36.325 251.652 36.3067 251.762 36.27C251.872 36.1967 251.964 36.0133 252.037 35.72L252.917 30.88L257.537 30.88V41L228.057 41ZM34.0424 111V107.48L38.2224 106.985L29.6974 94.775L21.3374 106.985L25.4624 107.48V111L11.6574 111V107.59L14.6824 106.985C15.2324 106.838 15.7091 106.49 16.1124 105.94L26.5624 91.2L16.0024 76.24C15.8191 75.9467 15.6357 75.745 15.4524 75.635C15.2691 75.4883 15.0124 75.3783 14.6824 75.305L11.9874 74.7L12.5374 71.18L27.0024 71.18V74.7L22.7674 75.195L30.7424 86.91L38.9924 75.195L34.8674 74.7L35.4174 71.18H48.0124V74.7L45.4824 75.305C45.1524 75.3783 44.8957 75.5067 44.7124 75.69C44.5291 75.8367 44.3274 76.0567 44.1074 76.35L33.9324 90.43L45.2074 105.94C45.3907 106.233 45.5741 106.453 45.7574 106.6C45.9407 106.71 46.1974 106.802 46.5274 106.875L49.3874 107.48V111H34.0424ZM71.7999 111.66C68.5732 111.66 65.7866 111.147 63.4399 110.12C61.0932 109.093 59.1499 107.682 57.6099 105.885C56.1066 104.052 54.9882 101.87 54.2549 99.34C53.5582 96.7733 53.2099 93.9867 53.2099 90.98C53.2099 88.0467 53.6132 85.3333 54.4199 82.84C55.2632 80.3467 56.4916 78.1833 58.1049 76.35C59.7182 74.5167 61.7349 73.0867 64.1549 72.06C66.5749 70.9967 69.3799 70.465 72.5699 70.465C75.7599 70.465 78.5099 70.9967 80.8199 72.06C83.1299 73.0867 85.0182 74.4983 86.4849 76.295C87.9882 78.0917 89.0882 80.2 89.7849 82.62C90.5182 85.04 90.8849 87.625 90.8849 90.375C90.8849 93.6017 90.4816 96.535 89.6749 99.175C88.9049 101.778 87.7316 104.015 86.1549 105.885C84.5782 107.718 82.5799 109.148 80.1599 110.175C77.7766 111.165 74.9899 111.66 71.7999 111.66ZM72.0199 106.325C73.8532 106.325 75.5216 106.032 77.0249 105.445C78.5282 104.858 79.8116 103.942 80.8749 102.695C81.9382 101.448 82.7632 99.8533 83.3499 97.91C83.9732 95.93 84.2849 93.5833 84.2849 90.87C84.2849 85.7733 83.2399 81.9967 81.1499 79.54C79.0599 77.0467 76.1816 75.8 72.5149 75.8C70.6449 75.8 68.9399 76.1117 67.3999 76.735C65.8599 77.3583 64.5216 78.3117 63.3849 79.595C62.2849 80.8417 61.4232 82.4183 60.7999 84.325C60.1766 86.195 59.8649 88.395 59.8649 90.925C59.8649 96.2417 60.9649 100.147 63.1649 102.64C65.4016 105.097 68.3532 106.325 72.0199 106.325ZM119.541 111V107.48L122.786 107.095C123.19 107.022 123.428 106.93 123.501 106.82C123.611 106.673 123.666 106.398 123.666 105.995L123.666 75.91H112.391C112.465 79.6867 112.446 83.445 112.336 87.185C112.226 90.8883 111.97 94.225 111.566 97.195C111.31 99.2117 110.87 101.082 110.246 102.805C109.66 104.492 108.816 105.977 107.716 107.26C106.653 108.507 105.315 109.533 103.701 110.34C102.088 111.11 100.126 111.587 97.8162 111.77L96.7162 106.105C98.1095 105.885 99.2829 105.555 100.236 105.115C101.226 104.675 102.07 104.052 102.766 103.245C103.463 102.438 104.031 101.448 104.471 100.275C104.911 99.1017 105.26 97.6717 105.516 95.985C105.7 94.995 105.846 93.8033 105.956 92.41C106.103 90.98 106.213 89.4217 106.286 87.735C106.36 86.0483 106.415 84.2517 106.451 82.345C106.488 80.4383 106.488 78.495 106.451 76.515C106.451 76.0017 106.396 75.6717 106.286 75.525C106.176 75.3417 105.92 75.2133 105.516 75.14L101.941 74.7V71.18H134.666V74.7L130.981 75.14C130.615 75.2133 130.376 75.3233 130.266 75.47C130.156 75.6167 130.101 75.8917 130.101 76.295L130.101 105.94C130.101 106.38 130.138 106.655 130.211 106.765C130.321 106.875 130.578 106.967 130.981 107.04L134.666 107.48V111H119.541ZM174.124 111V107.48L178.689 107.095C179.092 107.058 179.331 106.967 179.404 106.82C179.514 106.673 179.569 106.398 179.569 105.995V80.97H179.404L169.834 102.2H162.684L153.059 80.695H152.949V105.94C152.949 106.38 152.986 106.673 153.059 106.82C153.169 106.93 153.426 107.003 153.829 107.04L158.559 107.48V111H143.049V107.48L146.514 107.095C146.917 107.058 147.156 106.967 147.229 106.82C147.339 106.673 147.394 106.398 147.394 105.995L147.394 76.24C147.394 75.8367 147.339 75.5617 147.229 75.415C147.156 75.2683 146.917 75.1767 146.514 75.14L143.049 74.755V71.18H155.424L166.699 96.92H166.864L178.304 71.18L190.129 71.18V74.7L186.444 75.14C186.041 75.2133 185.784 75.305 185.674 75.415C185.601 75.525 185.564 75.7817 185.564 76.185L185.564 105.995C185.564 106.362 185.619 106.618 185.729 106.765C185.839 106.912 186.077 107.003 186.444 107.04L190.129 107.48V111L174.124 111ZM213.999 106.215C215.209 106.215 216.328 106.105 217.354 105.885C218.381 105.665 219.261 105.262 219.994 104.675C220.764 104.088 221.351 103.318 221.754 102.365C222.194 101.375 222.414 100.147 222.414 98.68C222.414 96.2233 221.699 94.4817 220.269 93.455C218.839 92.4283 216.951 91.915 214.604 91.915H209.214V106.215H213.999ZM198.269 71.18H215.484V74.7L210.149 75.195C209.746 75.2317 209.489 75.3233 209.379 75.47C209.269 75.58 209.214 75.855 209.214 76.295L209.214 87.295H215.924C218.344 87.295 220.379 87.57 222.029 88.12C223.716 88.67 225.073 89.44 226.099 90.43C227.163 91.42 227.914 92.5933 228.354 93.95C228.831 95.3067 229.069 96.81 229.069 98.46C229.069 100.697 228.703 102.622 227.969 104.235C227.273 105.812 226.283 107.113 224.999 108.14C223.753 109.13 222.249 109.863 220.489 110.34C218.729 110.78 216.804 111 214.714 111H198.489V107.48L201.954 107.095C202.358 107.022 202.596 106.93 202.669 106.82C202.779 106.673 202.834 106.398 202.834 105.995L202.834 76.075C202.834 75.6717 202.779 75.4333 202.669 75.36C202.559 75.25 202.321 75.1583 201.954 75.085L198.269 74.7V71.18ZM230.774 111V107.48L234.789 107.095C235.193 107.058 235.431 106.967 235.504 106.82C235.614 106.673 235.669 106.398 235.669 105.995V76.185C235.669 75.7817 235.614 75.5067 235.504 75.36C235.431 75.2133 235.193 75.1217 234.789 75.085L230.774 74.7V71.18H247.219V74.7L242.984 75.14C242.581 75.2133 242.324 75.305 242.214 75.415C242.141 75.525 242.104 75.7817 242.104 76.185V105.94C242.104 106.38 242.141 106.655 242.214 106.765C242.324 106.875 242.581 106.967 242.984 107.04L247.219 107.48V111H230.774Z" fill="white"/>
</svg>

<svg width="258" height="112" fill="none" xmlns="http://www.w3.org/2000/svg"><path d="M24.638 41v-3.52l3.465-.385c.403-.073.642-.165.715-.275.11-.147.165-.422.165-.825V9.705h-.22L11.163 41H.108v-3.52l3.465-.385c.403-.073.642-.165.715-.275.11-.147.165-.422.165-.825V6.185c0-.403-.055-.678-.165-.825-.073-.147-.312-.238-.715-.275L.108 4.7V1.18h15.235V4.7l-3.685.44c-.403.073-.66.165-.77.275-.073.11-.11.367-.11.77v25.74h.22L28.323 1.18h11.55V4.7l-3.685.44c-.403.073-.66.165-.77.275-.073.11-.11.367-.11.77V35.94c0 .44.037.715.11.825.11.11.367.202.77.275l3.685.44V41H24.638zm47.313 0v-3.52l3.465-.385c.404-.073.642-.165.715-.275.11-.147.165-.422.165-.825v-13.09h-17.38V35.94c0 .44.037.715.11.825.11.11.367.202.77.275l3.685.44V41H48.136v-3.52l3.465-.385c.404-.073.642-.165.715-.275.11-.147.165-.422.165-.825V6.185c0-.403-.055-.678-.165-.825-.073-.147-.311-.238-.715-.275L48.136 4.7V1.18h15.345V4.7l-3.685.44c-.403.073-.66.165-.77.275-.073.11-.11.367-.11.77v11.88h17.38V6.185c0-.403-.055-.678-.165-.825-.073-.147-.311-.238-.715-.275L71.951 4.7V1.18h15.125V4.7l-3.465.44c-.403.073-.66.165-.77.275-.073.11-.11.367-.11.77V35.94c0 .44.037.715.11.825.11.11.367.202.77.275l3.465.44V41H71.951zm55.575-2.31c-1.54.99-3.538 1.742-5.995 2.255-2.42.477-4.895.715-7.425.715-3.373 0-6.27-.495-8.69-1.485-2.383-.99-4.345-2.383-5.885-4.18-1.54-1.833-2.676-4.033-3.41-6.6-.696-2.567-1.045-5.408-1.045-8.525 0-2.933.404-5.647 1.21-8.14.844-2.493 2.109-4.638 3.795-6.435 1.687-1.833 3.777-3.263 6.27-4.29 2.53-1.027 5.464-1.54 8.8-1.54 2.384 0 4.657.275 6.82.825 2.2.513 4.015 1.247 5.445 2.2v9.625l-4.675-.33-.935-5.335c-.036-.477-.293-.788-.77-.935a18.058 18.058 0 00-2.86-.715 18.765 18.765 0 00-3.3-.275c-3.996 0-7.186 1.302-9.57 3.905-2.346 2.603-3.52 6.417-3.52 11.44 0 5.28 1.119 9.24 3.355 11.88 2.274 2.603 5.39 3.905 9.35 3.905 1.137 0 2.329-.055 3.575-.165 1.247-.147 2.329-.403 3.245-.77.294-.073.495-.165.605-.275.11-.147.202-.403.275-.77l.88-5.06h4.455v9.075zm19.176-20.35h3.85c1.283 0 2.31-.202 3.08-.605.806-.44 1.503-1.393 2.09-2.86l3.52-8.8c.733-1.87 1.65-3.263 2.75-4.18 1.136-.953 2.786-1.43 4.95-1.43.44.037.935.092 1.485.165.55.037 1.045.092 1.485.165l-.22 4.51a8.736 8.736 0 00-1.595-.165c-1.027 0-1.779.257-2.255.77-.477.477-.899 1.21-1.265 2.2l-2.64 7.315c-.587 1.613-1.357 2.768-2.31 3.465-.954.697-1.834 1.173-2.64 1.43v.055a4.37 4.37 0 011.375.66c.44.293.861.678 1.265 1.155.403.44.806.99 1.21 1.65.403.66.861 1.467 1.375 2.42l4.95 9.24c.256.44.476.77.66.99.22.183.531.312.935.385l3.575.605V41h-10.065a42.934 42.934 0 00-1.705-3.85 78.073 78.073 0 00-1.925-3.905 64.494 64.494 0 00-1.87-3.575 603.705 603.705 0 00-1.485-2.86c-.404-.733-.789-1.338-1.155-1.815-.367-.477-.752-.843-1.155-1.1a3.6 3.6 0 00-1.43-.605c-.514-.11-1.137-.165-1.87-.165h-2.97V35.94c0 .44.036.715.11.825.11.11.366.202.77.275l3.685.44V41h-15.345v-3.52l3.465-.385c.403-.073.641-.183.715-.33.11-.147.165-.422.165-.825V6.185c0-.403-.055-.678-.165-.825-.074-.147-.312-.238-.715-.275l-3.465-.385V1.18h15.345V4.7l-3.685.44c-.404.073-.66.165-.77.275-.074.11-.11.367-.11.77V18.34zM204.559 41v-3.52l3.465-.385c.403-.073.642-.165.715-.275.11-.147.165-.422.165-.825V9.705h-.22L191.084 41h-11.055v-3.52l3.465-.385c.403-.073.642-.165.715-.275.11-.147.165-.422.165-.825V6.185c0-.403-.055-.678-.165-.825-.073-.147-.312-.238-.715-.275l-3.465-.385V1.18h15.235V4.7l-3.685.44c-.403.073-.66.165-.77.275-.073.11-.11.367-.11.77v25.74h.22L208.244 1.18h11.55V4.7l-3.685.44c-.403.073-.66.165-.77.275-.073.11-.11.367-.11.77V35.94c0 .44.037.715.11.825.11.11.367.202.77.275l3.685.44V41h-15.235zm23.498 0v-3.52l3.465-.385c.404-.073.642-.165.715-.275.11-.147.165-.422.165-.825V6.24c0-.403-.055-.678-.165-.825-.073-.147-.311-.238-.715-.275l-3.465-.385V1.18h28.27v9.9l-4.675-.22-.77-4.235c-.11-.477-.421-.715-.935-.715h-11.11v12.65h13.97v4.785h-13.97v12.98h12.32c.294 0 .495-.018.605-.055.11-.073.202-.257.275-.55l.88-4.84h4.62V41h-29.48zM34.042 111v-3.52l4.18-.495-8.525-12.21-8.36 12.21 4.125.495V111H11.657v-3.41l3.025-.605c.55-.147 1.027-.495 1.43-1.045l10.45-14.74-10.56-14.96c-.183-.293-.366-.495-.55-.605-.183-.147-.44-.257-.77-.33l-2.695-.605.55-3.52h14.465v3.52l-4.235.495 7.975 11.715 8.25-11.715-4.125-.495.55-3.52h12.595v3.52l-2.53.605c-.33.073-.586.202-.77.385a3.679 3.679 0 00-.605.66L33.932 90.43l11.275 15.51c.184.293.367.513.55.66.184.11.44.202.77.275l2.86.605V111H34.042zm37.758.66c-3.227 0-6.013-.513-8.36-1.54-2.347-1.027-4.29-2.438-5.83-4.235-1.503-1.833-2.622-4.015-3.355-6.545-.697-2.567-1.045-5.353-1.045-8.36 0-2.933.403-5.647 1.21-8.14.843-2.493 2.072-4.657 3.685-6.49 1.613-1.833 3.63-3.263 6.05-4.29 2.42-1.063 5.225-1.595 8.415-1.595 3.19 0 5.94.532 8.25 1.595 2.31 1.027 4.198 2.438 5.665 4.235 1.503 1.797 2.603 3.905 3.3 6.325.733 2.42 1.1 5.005 1.1 7.755 0 3.227-.403 6.16-1.21 8.8-.77 2.603-1.943 4.84-3.52 6.71-1.577 1.833-3.575 3.263-5.995 4.29-2.383.99-5.17 1.485-8.36 1.485zm.22-5.335c1.833 0 3.502-.293 5.005-.88a9.56 9.56 0 003.85-2.75c1.063-1.247 1.888-2.842 2.475-4.785.623-1.98.935-4.327.935-7.04 0-5.097-1.045-8.873-3.135-11.33-2.09-2.493-4.968-3.74-8.635-3.74-1.87 0-3.575.312-5.115.935s-2.878 1.577-4.015 2.86c-1.1 1.247-1.962 2.823-2.585 4.73-.623 1.87-.935 4.07-.935 6.6 0 5.317 1.1 9.222 3.3 11.715 2.237 2.457 5.188 3.685 8.855 3.685zM119.54 111v-3.52l3.245-.385c.404-.073.642-.165.715-.275.11-.147.165-.422.165-.825V75.91H112.39c.074 3.777.055 7.535-.055 11.275-.11 3.703-.366 7.04-.77 10.01-.256 2.017-.696 3.887-1.32 5.61-.586 1.687-1.43 3.172-2.53 4.455-1.063 1.247-2.401 2.273-4.015 3.08-1.613.77-3.575 1.247-5.885 1.43l-1.1-5.665c1.394-.22 2.567-.55 3.52-.99a7.11 7.11 0 002.53-1.87c.697-.807 1.265-1.797 1.705-2.97.44-1.173.789-2.603 1.045-4.29.184-.99.33-2.182.44-3.575.147-1.43.257-2.988.33-4.675.074-1.687.129-3.483.165-5.39.037-1.907.037-3.85 0-5.83 0-.513-.055-.843-.165-.99-.11-.183-.366-.312-.77-.385l-3.575-.44v-3.52h32.725v3.52l-3.685.44c-.366.073-.605.183-.715.33-.11.147-.165.422-.165.825v29.645c0 .44.037.715.11.825.11.11.367.202.77.275l3.685.44V111H119.54zm54.583 0v-3.52l4.565-.385c.403-.037.642-.128.715-.275.11-.147.165-.422.165-.825V80.97h-.165l-9.57 21.23h-7.15l-9.625-21.505h-.11v25.245c0 .44.037.733.11.88.11.11.367.183.77.22l4.73.44V111h-15.51v-3.52l3.465-.385c.403-.037.642-.128.715-.275.11-.147.165-.422.165-.825V76.24c0-.403-.055-.678-.165-.825-.073-.147-.312-.238-.715-.275l-3.465-.385V71.18h12.375l11.275 25.74h.165l11.44-25.74h11.825v3.52l-3.685.44c-.403.073-.66.165-.77.275-.073.11-.11.367-.11.77v29.81c0 .367.055.623.165.77.11.147.348.238.715.275l3.685.44V111h-16.005zm39.875-4.785c1.21 0 2.329-.11 3.355-.33 1.027-.22 1.907-.623 2.64-1.21.77-.587 1.357-1.357 1.76-2.31.44-.99.66-2.218.66-3.685 0-2.457-.715-4.198-2.145-5.225-1.43-1.027-3.318-1.54-5.665-1.54h-5.39v14.3h4.785zm-15.73-35.035h17.215v3.52l-5.335.495c-.403.037-.66.128-.77.275-.11.11-.165.385-.165.825v11h6.71c2.42 0 4.455.275 6.105.825 1.687.55 3.044 1.32 4.07 2.31a8.19 8.19 0 012.255 3.52c.477 1.357.715 2.86.715 4.51 0 2.237-.366 4.162-1.1 5.775-.696 1.577-1.686 2.878-2.97 3.905-1.246.99-2.75 1.723-4.51 2.2-1.76.44-3.685.66-5.775.66h-16.225v-3.52l3.465-.385c.404-.073.642-.165.715-.275.11-.147.165-.422.165-.825v-29.92c0-.403-.055-.642-.165-.715-.11-.11-.348-.202-.715-.275l-3.685-.385v-3.52zM230.774 111v-3.52l4.015-.385c.404-.037.642-.128.715-.275.11-.147.165-.422.165-.825v-29.81c0-.403-.055-.678-.165-.825-.073-.147-.311-.238-.715-.275l-4.015-.385v-3.52h16.445v3.52l-4.235.44c-.403.073-.66.165-.77.275-.073.11-.11.367-.11.77v29.755c0 .44.037.715.11.825.11.11.367.202.77.275l4.235.44V111h-16.445z" fill="#fff"/></svg>
